svg/radioactive_circle_outline.svg

<svg xmlns="http://www.w3.org/2000/svg" viewBox="0 0 24 24"><path d="M12 4c4.4 0 8 3.6 8 8s-3.6 8-8 8-8-3.6-8-8 3.6-8 8-8m0-2C6.5 2 2 6.5 2 12s4.5 10 10 10 10-4.5 10-10S17.5 2 12 2m3 15.2-1.8-3q-.6.3-1.2.3c-.6 0-.9-.1-1.2-.3-.5.9-1.2 2-1.8 3 .9.5 1.9.8 3 .8s2.1-.3 3-.8m0-10.4-1.8 3c.7.4 1.3 1.2 1.3 2.2H18c0-2.2-1.2-4.2-3-5.2M12 13c.6 0 1-.4 1-1s-.4-1-1-1-1 .4-1 1 .4 1 1 1m-6-1h3.5c0-.9.5-1.7 1.3-2.2-.5-.9-1.2-2-1.8-3-1.8 1-3 3-3 5.2"/></svg>

<svg xmlns="http://www.w3.org/2000/svg" id="mdi-radioactive-circle-outline" viewBox="0 0 24 24"><path d="M12 4C16.4 4 20 7.6 20 12S16.4 20 12 20 4 16.4 4 12 7.6 4 12 4M12 2C6.5 2 2 6.5 2 12S6.5 22 12 22 22 17.5 22 12 17.5 2 12 2M15 17.2L13.2 14.2C12.8 14.4 12.4 14.5 12 14.5S11.1 14.4 10.8 14.2C10.3 15.1 9.6 16.2 9 17.2C9.9 17.7 10.9 18 12 18S14.1 17.7 15 17.2M15 6.8L13.2 9.8C13.9 10.2 14.5 11 14.5 12H18C18 9.8 16.8 7.8 15 6.8M12 13C12.6 13 13 12.6 13 12S12.6 11 12 11 11 11.4 11 12 11.4 13 12 13M6 12H9.5C9.5 11.1 10 10.3 10.8 9.8C10.3 8.9 9.6 7.8 9 6.8C7.2 7.8 6 9.8 6 12Z" /></svg>
